X: 134
M:6/8
L:1/8
Q:160
K:D
|: f a2 d2 e|f2 g agf|g a2 e2 f|g2 a bag|f a2 e2 f|d2 e f2 e|dcB A2 f|e3 d3 :|

